src/img/new-site/icon_dropdown-white.svg

<?xml version="1.0" encoding="UTF-8"?>
<svg width="24px" height="24px" viewBox="0 0 24 24" version="1.1" xmlns="http://www.w3.org/2000/svg" xmlns:xlink="http://www.w3.org/1999/xlink">
    <!-- Generator: Sketch 42 (36781) - http://www.bohemiancoding.com/sketch -->
    <title>icon_dropdown-dark</title>
    <desc>Created with Sketch.</desc>
    <defs></defs>
    <g id="Page-1" stroke="none" stroke-width="1" fill="none" fill-rule="evenodd" opacity="0.600000024">
        <g id="1280" transform="translate(-1162.000000, -3269.000000)" fill="#FFFFFF">
            <g id="Group-18" transform="translate(0.000000, 3148.000000)">
                <g id="Group-16" transform="translate(99.000000, 20.000000)">
                    <g id="Group-17" transform="translate(604.000000, 0.000000)">
                        <g id="Group-14" transform="translate(363.000000, 0.000000)">
                            <g id="Group-10" transform="translate(45.000000, 101.000000)">
                                <g id="Group-6" transform="translate(51.000000, 0.000000)">
                                    <path d="M12,14.3300632 L8.46236609,10.7924293 C8.07770436,10.4077676 7.44077682,10.404005 7.05025253,10.7945293 C6.65700558,11.1877763 6.65878803,11.8172784 7.04815252,12.2066429 L11.2949932,16.4534836 C11.4869793,16.6454697 11.741806,16.7425721 11.9974742,16.7431263 C12.2565137,16.7456044 12.5106708,16.6478196 12.7050068,16.4534836 L16.9518475,12.2066429 C17.3365092,11.8219811 17.3402718,11.1850536 16.9497475,10.7945293 C16.5565005,10.4012824 15.9269984,10.4030648 15.5376339,10.7924293 L12,14.3300632 L12,14.3300632 Z" id="Combined-Shape"></path>
                                </g>
                            </g>
                        </g>
                    </g>
                </g>
            </g>
        </g>
    </g>
</svg>

<svg width="24" height="24" viewBox="0 0 24 24" xmlns="http://www.w3.org/2000/svg"><title>icon_dropdown-dark</title><path d="M12 14.33l-3.538-3.538a1.003 1.003 0 0 0-1.412.003.996.996 0 0 0-.002 1.412l4.247 4.246c.192.192.447.29.702.29a.981.981 0 0 0 .708-.29l4.247-4.246a1.003 1.003 0 0 0-.002-1.412.996.996 0 0 0-1.412-.003L12 14.33z" fill="#FFF" fill-rule="evenodd" opacity=".6"/></svg>
